img/ic3.svg

<svg width="47" height="46" viewBox="0 0 47 46" fill="none" xmlns="http://www.w3.org/2000/svg">
<path d="M23.5 3.83334C19.7092 3.83334 16.0035 4.95745 12.8516 7.06351C9.69965 9.16957 7.24301 12.163 5.79233 15.6652C4.34165 19.1675 3.96208 23.0213 4.70163 26.7392C5.44118 30.4572 7.26663 33.8724 9.94714 36.5529C12.6276 39.2334 16.0428 41.0588 19.7608 41.7984C23.4788 42.5379 27.3325 42.1584 30.8348 40.7077C34.337 39.257 37.3305 36.8004 39.4365 33.6484C41.5426 30.4965 42.6667 26.7908 42.6667 23C42.6667 20.483 42.1709 17.9906 41.2077 15.6652C40.2445 13.3398 38.8327 11.2269 37.0529 9.44713C35.2731 7.66734 33.1602 6.25553 30.8348 5.29232C28.5094 4.3291 26.017 3.83334 23.5 3.83334ZM23.5 7.66668C24.655 7.67422 25.8055 7.8092 26.9309 8.06918C26.5977 8.82126 26.0842 9.47958 25.4359 9.98584C25.0142 10.3117 24.5542 10.58 24.0942 10.8675C22.638 11.5845 21.4101 12.6928 20.5484 14.0683C19.6043 16.0359 19.1944 18.2173 19.36 20.3933C19.36 23 19.36 24.5333 17.5392 25.8942C14.9134 27.945 10.9075 26.795 8.41585 25.76C8.25296 24.849 8.16959 23.9255 8.16669 23C8.16669 18.9334 9.78216 15.0333 12.6577 12.1577C15.5333 9.28215 19.4334 7.66668 23.5 7.66668ZM10.0834 30.2833C11.3358 30.6089 12.6228 30.7826 13.9167 30.8008C16.0817 30.8604 18.2031 30.1848 19.935 28.8842C23.2125 26.3158 23.2125 23.0192 23.2125 20.3742C23.0672 18.8433 23.3111 17.3005 23.9217 15.8892C24.4764 15.1338 25.2155 14.5333 26.0684 14.145C26.6777 13.7889 27.2665 13.3986 27.8317 12.9758C29.0228 12.035 29.9477 10.7996 30.515 9.39168C33.2117 10.7714 35.4393 12.919 36.9167 15.5633C34.1759 15.9467 30.285 16.8475 29.5184 20.4125C29.3453 21.2643 29.2554 22.1308 29.25 23C29.3121 23.9715 29.1205 24.9424 28.6942 25.8175L28.5025 26.1433C27.2567 28.2133 25.8575 30.5708 27.755 33.81C27.985 34.2125 28.2342 34.5958 28.4834 34.9792C28.9935 35.5684 29.3375 36.2829 29.48 37.0492C27.595 37.8801 25.56 38.3171 23.5 38.3333C20.747 38.3196 18.0484 37.5649 15.6876 36.1484C13.3269 34.732 11.391 32.706 10.0834 30.2833ZM32.9492 35.1133C32.6176 34.348 32.2133 33.6163 31.7417 32.9283C31.5309 32.6217 31.32 32.315 31.1284 31.9892C30.3809 30.6858 30.6492 30.0725 31.8567 28.1558L32.0484 27.83C32.7995 26.3965 33.1567 24.7892 33.0834 23.1725C33.0814 22.5297 33.1392 21.888 33.2559 21.2558C33.5625 19.8567 36.5334 19.4733 38.3734 19.3392C39.117 22.2305 38.9938 25.2767 38.0191 28.0985C37.0445 30.9204 35.2613 33.3932 32.8917 35.2092L32.9492 35.1133Z" fill="url(#paint0_linear)"/>
<defs>
<linearGradient id="paint0_linear" x1="4.25728" y1="3.66741" x2="34.6923" y2="39.9358" gradientUnits="userSpaceOnUse">
<stop stop-color="#FECA52"/>
<stop offset="0.515625" stop-color="#FFCE5F"/>
<stop offset="1" stop-color="#FF644E"/>
</linearGradient>
</defs>
</svg>

<svg width="47" height="46" viewBox="0 0 47 46" fill="none" xmlns="http://www.w3.org/2000/svg"><path d="M23.5 3.833a19.166 19.166 0 1 0 0 38.333 19.166 19.166 0 0 0 0-38.333zm0 3.834c1.155.007 2.305.142 3.43.402a5.003 5.003 0 0 1-1.494 1.917c-.422.326-.882.594-1.342.881a8.74 8.74 0 0 0-3.546 3.201 12.44 12.44 0 0 0-1.188 6.325c0 2.607 0 4.14-1.82 5.501-2.627 2.051-6.632.901-9.124-.134A15.334 15.334 0 0 1 23.5 7.667zM10.083 30.283c1.253.326 2.54.5 3.834.518a9.583 9.583 0 0 0 6.018-1.917c3.277-2.568 3.277-5.865 3.277-8.51a9.124 9.124 0 0 1 .71-4.485 5.48 5.48 0 0 1 2.146-1.744c.61-.356 1.198-.746 1.764-1.17a8.72 8.72 0 0 0 2.683-3.583 15.333 15.333 0 0 1 6.402 6.171c-2.741.384-6.632 1.284-7.399 4.85A13.41 13.41 0 0 0 29.25 23a5.616 5.616 0 0 1-.556 2.817l-.191.326c-1.246 2.07-2.645 4.428-.748 7.667.23.402.48.786.728 1.17.51.588.854 1.303.997 2.07a15.12 15.12 0 0 1-5.98 1.283 15.333 15.333 0 0 1-13.417-8.05zm22.866 4.83a13.02 13.02 0 0 0-1.207-2.185c-.211-.306-.422-.613-.614-.939-.747-1.303-.479-1.916.729-3.833l.191-.326a9.143 9.143 0 0 0 1.035-4.657c-.002-.643.056-1.285.173-1.917.306-1.4 3.277-1.783 5.117-1.917a15.219 15.219 0 0 1-5.481 15.87l.057-.096z" fill="url(#a)"/><defs><linearGradient id="a" x1="4.257" y1="3.667" x2="34.692" y2="39.936" gradientUnits="userSpaceOnUse"><stop stop-color="#FECA52"/><stop offset=".516" stop-color="#FFCE5F"/><stop offset="1" stop-color="#FF644E"/></linearGradient></defs></svg>
